X:2287
T:Untitled 
T:Called Thurot as Elliot in Manx National Music 
C:W. Corlett, miner, Laxey
C:Traditional
O:Isle of Man
Z:Clague collection
B:Kiaull Vannin #287 
M:6/8 
L:1/8 
K:G 
G|GBd d!fermata!BG|AGA B!fermata!GG|GBd dBG|AGA !fermata!B2 G|GBd dBG|AGA BDD|DcB BAA|G3-G2|| 

